svg/300/outlined/monitoring.svg

<svg xmlns="http://www.w3.org/2000/svg" width="48" height="48" viewBox="0 -960 960 960"><path d="M130.001-130.001v-62.922l45.383-45.383v108.305h-45.383Zm163.846 0v-222.922l45.383-45.383v268.305h-45.383Zm163.461 0v-268.305l45.384 46.383v221.922h-45.384Zm163.846 0v-221.922l45.384-45.383v267.305h-45.384Zm163.462 0v-382.922l45.383-45.383v428.305h-45.383ZM130.001-372.54v-63.844L400-705.153l160 160 269.999-270.614v64.229L560-480.924l-160-160L130.001-372.54Z"/></svg>

<svg xmlns="http://www.w3.org/2000/svg" width="48" height="48" viewBox="0 -960 960 960"><path d="M130-130v-62.92l45.38-45.39V-130H130Zm163.85 0v-222.92l45.38-45.39V-130h-45.38Zm163.46 0v-268.31l45.38 46.39V-130h-45.38Zm163.84 0v-221.92l45.39-45.39V-130h-45.39Zm163.47 0v-382.92L830-558.31V-130h-45.38ZM130-372.54v-63.84l270-268.77 160 160 270-270.62v64.23L560-480.92l-160-160-270 268.38Z"/></svg>
